images_sukapura_svg/cmd/lc_inserttable.svg

<svg viewBox="0 0 24 24" xmlns="http://www.w3.org/2000/svg" xmlns:xlink="http://www.w3.org/1999/xlink"><linearGradient id="a" gradientUnits="userSpaceOnUse" x1="12" x2="12" y1="3" y2="21"><stop offset="0" stop-color="#efefef"/><stop offset=".33333334" stop-color="#fff"/><stop offset=".8888889" stop-color="#fff"/><stop offset="1" stop-color="#f5f5f5"/></linearGradient><filter id="b" color-interpolation-filters="sRGB" height="1.094553" width="1.097492" x="-.048746" y="-.047277"><feGaussianBlur stdDeviation=".36559322"/></filter><path d="m3 4h18v18.559322h-18z" filter="url(#b)" opacity=".15" stroke-width="1.015418"/><path d="m3 3h18v18h-18z" fill="url(#a)"/><path d="m3 2c-.554 0-1 .446-1 1v18c0 .554.446 1 1 1h18c.554 0 1-.446 1-1v-18c0-.554-.446-1-1-1zm0 1h5v6h-5zm6 0h6v6h-6zm7 0h5v6h-5zm-13 7h5v3h-5zm6 0h6v3h-6zm7 0h5v3h-5zm-13 4h5v3h-5zm6 0h6v3h-6zm7 0h5v3h-5zm-13 4h5v3h-5zm6 0h6v3h-6zm7 0h5v3h-5z" fill="#bababa"/><path d="m2 2h20v4h-20z" fill="#0a84ff"/><path d="m3 2c-.554 0-1 .446-1 1v18c0 .554.446 1 1 1h18c.554 0 1-.446 1-1v-18c0-.554-.446-1-1-1zm0 1h5 1 6 1 5v6 1 3 1 3 1 3h-5-1-6-1-5v-3-1-3-1-3-1z" fill="#69696e"/><path d="m3 2c-.554 0-1 .446-1 1v2 1h1 18 1v-1-2c0-.554-.446-1-1-1zm0 1h5v2h-5zm6 0h6v2h-6zm7 0h5v2h-5z" fill="#0040dd"/></svg>

<?xml version="1.0" encoding="UTF-8" standalone="no"?>
<svg
   xmlns:dc="http://purl.org/dc/elements/1.1/"
   xmlns:cc="http://creativecommons.org/ns#"
   xmlns:rdf="http://www.w3.org/1999/02/22-rdf-syntax-ns#"
   xmlns:svg="http://www.w3.org/2000/svg"
   xmlns="http://www.w3.org/2000/svg"
   xmlns:xlink="http://www.w3.org/1999/xlink"
   xmlns:sodipodi="http://sodipodi.sourceforge.net/DTD/sodipodi-0.dtd"
   xmlns:inkscape="http://www.inkscape.org/namespaces/inkscape"
   viewBox="0 0 24 24"
   version="1.1"
   id="svg8"
   sodipodi:docname="lc_inserttable.svg"
   inkscape:version="0.92.3 (unknown)"
   inkscape:export-filename="/home/rizmut/Dokumen/Rizmut/Github/libreoffice-style-colibrex/images_colibrex/cmd/lc_inserttable.png"
   inkscape:export-xdpi="96"
   inkscape:export-ydpi="96">
  <metadata
     id="metadata14">
    <rdf:RDF>
      <cc:Work
         rdf:about="">
        <dc:format>image/svg+xml</dc:format>
        <dc:type
           rdf:resource="http://purl.org/dc/dcmitype/StillImage" />
        <dc:title />
      </cc:Work>
    </rdf:RDF>
  </metadata>
  <defs
     id="defs12">
    <linearGradient
       inkscape:collect="always"
       id="linearGradient838">
      <stop
         style="stop-color:#efefef;stop-opacity:1;"
         offset="0"
         id="stop834" />
      <stop
         id="stop842"
         offset="0.33333334"
         style="stop-color:#ffffff;stop-opacity:1" />
      <stop
         style="stop-color:#ffffff;stop-opacity:1"
         offset="0.8888889"
         id="stop844" />
      <stop
         style="stop-color:#f5f5f5;stop-opacity:1"
         offset="1"
         id="stop836" />
    </linearGradient>
    <clipPath
       clipPathUnits="userSpaceOnUse"
       id="clipPath830">
      <rect
         style="opacity:1;fill:#0a84ff;fill-opacity:1;stroke:none;stroke-width:1;stroke-linecap:round;stroke-linejoin:round;stroke-miterlimit:4;stroke-dasharray:none;stroke-opacity:1"
         id="rect832"
         width="70"
         height="70"
         x="-985"
         y="-646" />
    </clipPath>
    <linearGradient
       inkscape:collect="always"
       xlink:href="#linearGradient838"
       id="linearGradient840"
       x1="12"
       y1="3"
       x2="12"
       y2="21"
       gradientUnits="userSpaceOnUse" />
    <filter
       inkscape:collect="always"
       style="color-interpolation-filters:sRGB"
       id="filter866"
       x="-0.048745763"
       width="1.0974915"
       y="-0.047276712"
       height="1.0945534">
      <feGaussianBlur
         inkscape:collect="always"
         stdDeviation="0.36559322"
         id="feGaussianBlur868" />
    </filter>
  </defs>
  <sodipodi:namedview
     pagecolor="#ffffff"
     bordercolor="#666666"
     borderopacity="1"
     objecttolerance="10"
     gridtolerance="10"
     guidetolerance="10"
     inkscape:pageopacity="0"
     inkscape:pageshadow="2"
     inkscape:window-width="1366"
     inkscape:window-height="706"
     id="namedview10"
     showgrid="true"
     inkscape:zoom="9.8333333"
     inkscape:cx="-5.6897614"
     inkscape:cy="15.449938"
     inkscape:window-x="0"
     inkscape:window-y="0"
     inkscape:window-maximized="1"
     inkscape:current-layer="svg8"
     inkscape:snap-global="false">
    <inkscape:grid
       type="xygrid"
       id="grid832" />
  </sodipodi:namedview>
  <g
     id="g1534">
    <path
       inkscape:connector-curvature="0"
       d="M 3,4 H 21 V 22.559322 H 3 Z"
       id="path846"
       style="fill:#000000;fill-opacity:1;stroke-width:1.01541781;opacity:0.15;filter:url(#filter866)" />
    <path
       style="fill:url(#linearGradient840);fill-opacity:1"
       id="path2"
       fill="#fff"
       d="m3 3h18v18h-18z" />
    <path
       style="fill:#bababa;fill-opacity:1"
       fill="#808080"
       id="path4"
       d="m3 2c-.554 0-1 .446-1 1v18c0 .554.446 1 1 1h18c.554 0 1-.446 1-1v-18c0-.554-.446-1-1-1zm0 1h5v6h-5zm6 0h6v6h-6zm7 0h5v6h-5zm-13 7h5v3h-5zm6 0h6v3h-6zm7 0h5v3h-5zm-13 4h5v3h-5zm6 0h6v3h-6zm7 0h5v3h-5zm-13 4h5v3h-5zm6 0h6v3h-6zm7 0h5v3h-5z" />
    <path
       style="fill:#0a84ff;fill-opacity:1"
       id="path6"
       fill="#4d82b8"
       d="m2 2h20v4h-20z" />
    <path
       style="fill:#69696e;fill-opacity:1"
       id="path834"
       d="M 3 2 C 2.446 2 2 2.446 2 3 L 2 21 C 2 21.554 2.446 22 3 22 L 21 22 C 21.554 22 22 21.554 22 21 L 22 3 C 22 2.446 21.554 2 21 2 L 3 2 z M 3 3 L 8 3 L 9 3 L 15 3 L 16 3 L 21 3 L 21 9 L 21 10 L 21 13 L 21 14 L 21 17 L 21 18 L 21 21 L 16 21 L 15 21 L 9 21 L 8 21 L 3 21 L 3 18 L 3 17 L 3 14 L 3 13 L 3 10 L 3 9 L 3 3 z " />
    <path
       id="rect839"
       d="M 3 2 C 2.446 2 2 2.446 2 3 L 2 5 L 2 6 L 3 6 L 21 6 L 22 6 L 22 5 L 22 3 C 22 2.446 21.554 2 21 2 L 3 2 z M 3 3 L 8 3 L 8 5 L 3 5 L 3 3 z M 9 3 L 15 3 L 15 5 L 9 5 L 9 3 z M 16 3 L 21 3 L 21 5 L 16 5 L 16 3 z "
       style="opacity:1;fill:#0040dd;fill-opacity:1;stroke:none;stroke-width:1;stroke-linecap:square;stroke-linejoin:round;stroke-miterlimit:4;stroke-dasharray:none;stroke-dashoffset:0;stroke-opacity:1" />
  </g>
</svg>
